src/icons/icon-maestro.svg

<?xml version="1.0" encoding="UTF-8" standalone="no"?>
<svg width="23px" height="15px" viewBox="0 0 23 15" version="1.1" xmlns="http://www.w3.org/2000/svg" xmlns:xlink="http://www.w3.org/1999/xlink">
    <!-- Generator: Sketch 3.6.1 (26313) - http://www.bohemiancoding.com/sketch -->
    <title>Shape</title>
    <desc>Created with Sketch.</desc>
    <defs></defs>
    <g id="Page-1" stroke="none" stroke-width="1" fill="none" fill-rule="evenodd">
        <path d="M13.8383995,5.57158143 C13.4649952,4.34779177 12.8141766,3.29124238 11.8859437,2.40193324 C13.1486572,1.38397775 14.5852081,0.875 16.1955965,0.875 C17.4193862,0.875 18.5534532,1.17781372 19.5977977,1.78344116 C20.6421422,2.3890686 21.4700969,3.21702333 22.0816619,4.26730534 C22.6932269,5.31758735 22.9993392,6.45462318 22.9999989,7.67841283 C23.0006587,8.90220249 22.6945463,10.0392383 22.0816619,11.0895203 C21.4687775,12.1398023 20.6408228,12.9677571 19.5977977,13.5733845 C18.5547727,14.1790119 17.4207056,14.4818257 16.1955965,14.4818257 C14.5852081,14.4818257 13.1486572,13.9728479 11.8859437,12.9548924 C12.8135169,12.0655833 13.4643355,11.0090339 13.8383995,9.78524424 L13.2782931,9.78524424 C12.9174236,10.8546583 12.3246608,11.795426 11.5000047,12.6075473 C10.6621541,11.8086205 10.0631239,10.8678528 9.7029141,9.78524424 L9.14280767,9.78524424 C9.50367718,10.9964991 10.1478985,12.0530485 11.0754717,12.9548924 C9.78702902,13.9728479 8.36334273,14.4818257 6.80441283,14.4818257 C5.58062318,14.4818257 4.44358735,14.1790119 3.39330534,13.5733845 C2.34302333,12.9677571 1.5150686,12.1398023 0.909441161,11.0895203 C0.30381372,10.0392383 0.001,8.90220249 0.001,7.67841283 C0.001,6.45462318 0.30381372,5.31758735 0.909441161,4.26730534 C1.5150686,3.21702333 2.34302333,2.3890686 3.39330534,1.78344116 C4.44358735,1.17781372 5.58062318,0.875 6.80441283,0.875 C8.36334273,0.875 9.78702902,1.38397775 11.0754717,2.40193324 C10.1478985,3.30377715 9.50367718,4.36032655 9.14280767,5.57158143 L9.7029141,5.57158143 C10.0637836,4.4889729 10.6628138,3.54820522 11.5000047,2.74927839 C12.3246608,3.56073999 12.9174236,4.50150767 13.2782931,5.57158143 L13.8383995,5.57158143 L13.8383995,5.57158143 Z M6.22352508,9.24393998 L6.9004028,5.80314486 L5.54763694,5.80314486 L4.61940403,7.92877843 L4.56101838,5.80314486 L3.24684641,5.80314486 L2.58976043,9.24393998 L3.36262813,9.24393998 L3.86533849,6.61559605 L4.00091195,9.24393998 L4.77377965,9.24393998 L5.91378425,6.5958043 L5.39227173,9.24393998 L6.22352508,9.24393998 L6.22352508,9.24393998 Z M15.6938757,8.586854 C15.654952,8.60004849 15.5840315,8.60664574 15.4811145,8.60664574 C15.2878151,8.60664574 15.1911654,8.54232257 15.1911654,8.41367621 C15.1911654,8.37475245 15.1977626,8.32956129 15.2109571,8.27810275 L15.4237184,7.11830641 L15.849241,7.11830641 L15.9650227,6.46122043 L15.5395001,6.46122043 L15.6552818,5.80413445 L14.8240285,5.80413445 L14.4182977,7.92976801 L14.3985059,8.16133145 L14.359912,8.43148879 C14.3341828,8.53440587 14.3213181,8.61819093 14.3213181,8.68284397 C14.3213181,9.09517202 14.546944,9.30133604 14.9981959,9.30133604 C15.1268422,9.30133604 15.3201416,9.26900952 15.578094,9.20435648 L15.6938757,8.586854 Z M9.20020374,7.75560065 C9.25166228,7.48511344 9.27739155,7.2984113 9.27739155,7.19549422 C9.27739155,7.06684787 9.2549609,6.95073629 9.21009961,6.84715948 C9.16523832,6.74358268 9.0943179,6.65649899 8.99733834,6.58590843 C8.90035878,6.51531787 8.7842472,6.4605607 8.6490036,6.42163694 C8.51376,6.38271317 8.36235314,6.36325128 8.19478302,6.36325128 C8.0272129,6.36325128 7.68580528,6.42130707 7.17056014,6.53741865 L7.05477843,7.15591073 L7.13196624,7.13611898 L7.2675397,7.09752508 C7.49976286,7.04606654 7.72538877,7.02033727 7.94441743,7.02033727 C8.30528694,7.02033727 8.48572169,7.11038971 8.48572169,7.2904946 C8.48572169,7.3036891 8.48242307,7.32941837 8.47582582,7.36768242 C8.46922857,7.40594646 8.46592995,7.44454036 8.46592995,7.48346413 C8.37554764,7.45773486 8.25943606,7.44487023 8.11759521,7.44487023 C7.64061412,7.44487023 7.27347722,7.54151992 7.01618452,7.73481931 C6.75889182,7.9281187 6.6299156,8.19233852 6.62925588,8.52747876 C6.62925588,8.75970191 6.7001763,8.94343529 6.84201715,9.07867889 C6.983858,9.21392249 7.17056014,9.2815443 7.40212358,9.2815443 C7.78872236,9.2815443 8.07867144,9.16543272 8.27197083,8.93320956 L8.27197083,9.24295039 L8.96765072,9.24295039 L8.96765072,9.16576258 L8.98744247,9.04998086 L9.00723421,8.9144074 L9.04582812,8.74024003 L9.20020374,7.75560065 Z M11.8483394,8.48987444 C11.5778522,8.59279152 11.2816357,8.64425006 10.95969,8.64425006 C10.4827089,8.64425006 10.2442184,8.48327719 10.2442184,8.16133145 L10.2442184,8.06435189 L11.9067251,8.06435189 C11.9839129,7.79386469 12.0225068,7.56823878 12.0225068,7.38747416 C12.0225068,7.07806319 11.9225585,6.83000664 11.7226618,6.6433045 C11.5227652,6.45660235 11.2423821,6.36325128 10.8815126,6.36325128 C10.4559901,6.36325128 10.1050164,6.52125539 9.82859169,6.83726361 C9.55216696,7.15327183 9.41362474,7.54943662 9.41296501,8.02575798 C9.41296501,8.86360858 9.88961624,9.28253388 10.8429187,9.28253388 C11.1648644,9.28253388 11.4548135,9.25020736 11.7127659,9.18555432 L11.8483394,8.48987444 Z M20.6230102,7.96836192 C20.6362047,7.86544484 20.6428019,7.75593051 20.6428019,7.63981893 C20.6428019,7.26641465 20.5266904,6.9603023 20.2944672,6.72148189 C20.062244,6.48266149 19.7337011,6.36358115 19.3088382,6.36424087 C18.8193224,6.36424087 18.4264562,6.51894636 18.1302397,6.82835733 C17.8340233,7.13776829 17.685915,7.53723171 17.685915,8.02674757 C17.685915,8.87713294 18.1239723,9.30232563 19.000087,9.30232563 C19.9533894,9.30232563 20.4946937,8.85767106 20.6239998,7.96836192 L20.6230102,7.96836192 Z M14.2837138,6.44142868 C13.8581913,6.40250491 13.6068361,6.38304303 13.5296483,6.38304303 C13.2334318,6.38304303 12.9886739,6.42823419 12.7953745,6.51861649 C12.6020751,6.6089988 12.4635329,6.72181176 12.3797478,6.85705536 C12.2959627,6.99229896 12.2540702,7.15030307 12.2540702,7.33106768 C12.2540702,7.6787427 12.4730989,7.93009788 12.9111562,8.08513322 C12.9243507,8.09832772 12.9438126,8.11119236 12.9695418,8.12372713 C13.0856534,8.17518567 13.1628412,8.21048095 13.2011053,8.22961297 C13.2393693,8.24874499 13.2683972,8.27447426 13.288189,8.30680078 C13.3079807,8.3391273 13.3175467,8.37442258 13.316887,8.41268663 C13.316887,8.58025675 13.1493169,8.66404181 12.8141766,8.66404181 C12.6340717,8.66404181 12.3827166,8.63171529 12.0601111,8.56706225 L11.9443294,9.20534607 L11.9829233,9.20534607 L12.1372989,9.24393998 C12.1504934,9.24393998 12.1828199,9.2472386 12.2342785,9.25383585 C12.285737,9.2604331 12.3309282,9.26373172 12.3698519,9.26373172 C12.4470397,9.26373172 12.5370922,9.26703035 12.6400093,9.2736276 C12.7429263,9.28022485 12.8072495,9.28352347 12.8329788,9.28352347 C13.7090934,9.28352347 14.1471508,8.9741125 14.1471508,8.35529056 C14.1471508,7.99442105 13.9409867,7.73020124 13.5286587,7.56263112 C13.3485538,7.48544331 13.2390395,7.43398477 13.2001157,7.4082555 C13.1611919,7.38252623 13.14173,7.34393232 13.14173,7.29247378 C13.14173,7.12490366 13.2835709,7.0411186 13.5672526,7.0411186 C13.6576349,7.0411186 13.8572017,7.05398323 14.1659529,7.0797125 L14.2837138,6.44142868 Z M16.6992965,9.24393998 C16.8411373,8.39355461 16.9635163,7.84268433 17.0664334,7.59132915 C17.1693504,7.33997397 17.3240559,7.21429638 17.5305498,7.21429638 L17.6275294,7.21429638 L17.7245089,7.27268203 L18.0342498,6.48002259 C17.9827912,6.45429332 17.9441973,6.44142868 17.918468,6.44142868 L17.7640924,6.44142868 C17.5193345,6.44142868 17.2808439,6.58326953 17.0486208,6.86695123 L17.1258086,6.46122043 L16.3529409,6.46122043 L15.8502305,9.24492956 L16.700286,9.24492956 L16.6992965,9.24393998 Z M10.3214062,7.50424547 C10.4117885,7.16910523 10.5984906,7.00153511 10.8815126,7.00153511 C11.139465,7.00153511 11.2684412,7.12391407 11.2684412,7.368672 C11.2684412,7.39440127 11.2651426,7.42013054 11.2585454,7.44585981 C11.2519481,7.47158908 11.2486495,7.49105097 11.2486495,7.50424547 L10.3204166,7.50424547 L10.3214062,7.50424547 Z M19.3088382,7.04012901 C19.6050547,7.04012901 19.7531629,7.2334284 19.7531629,7.62002718 C19.7531629,7.65895095 19.7498643,7.71370812 19.7432671,7.78429868 C19.7366698,7.85488924 19.7333712,7.90304916 19.7333712,7.92877843 C19.7076419,8.07061928 19.6561834,8.19629687 19.5789956,8.3058112 C19.5018078,8.41532553 19.4180227,8.49581196 19.3276404,8.5472705 C19.2372581,8.59872904 19.1600703,8.62445831 19.096077,8.62445831 C18.7741312,8.62445831 18.6131583,8.41169704 18.6131583,7.98617449 C18.6131583,7.75395133 18.6774815,7.5382213 18.8061279,7.33898438 C18.9347742,7.13974747 19.1023443,7.03979915 19.3088382,7.03913942 L19.3088382,7.04012901 Z M7.46050923,8.41268663 C7.46050923,8.11647016 7.69899977,7.96836192 8.17598086,7.96836192 C8.18917536,7.96836192 8.21160601,7.97166054 8.2432728,7.97825779 C8.27493959,7.98485504 8.31023488,7.98815367 8.34915864,7.98815367 C8.34915864,8.12999452 8.32342937,8.25237348 8.27197083,8.35529056 C8.22051229,8.45820764 8.14959187,8.53869408 8.05920956,8.59674987 C7.96882725,8.65480566 7.86558031,8.68383355 7.74946873,8.68383355 C7.55616934,8.68383355 7.45951964,8.59378111 7.45951964,8.41367621 L7.46050923,8.41268663 Z" id="Shape" fill="#444444"></path>
    </g>
</svg>

<svg width="23" height="15" viewBox="0 0 23 15" xmlns="http://www.w3.org/2000/svg"><title>Shape</title><path d="M13.838 5.572a7.252 7.252 0 0 0-1.952-3.17c1.263-1.018 2.7-1.527 4.31-1.527 1.223 0 2.357.303 3.402.908a6.746 6.746 0 0 1 2.484 2.484A6.67 6.67 0 0 1 23 7.678c0 1.224-.305 2.361-.918 3.412a6.765 6.765 0 0 1-2.484 2.483 6.658 6.658 0 0 1-3.402.909c-1.61 0-3.047-.51-4.31-1.527a7.265 7.265 0 0 0 1.952-3.17h-.56a7.103 7.103 0 0 1-1.778 2.823 6.824 6.824 0 0 1-1.797-2.823h-.56a7.244 7.244 0 0 0 1.932 3.17c-1.288 1.018-2.712 1.527-4.27 1.527a6.712 6.712 0 0 1-3.412-.909A6.659 6.659 0 0 1 .91 11.09a6.712 6.712 0 0 1-.908-3.412c0-1.223.303-2.36.908-3.41a6.659 6.659 0 0 1 2.484-2.485A6.712 6.712 0 0 1 6.804.875c1.56 0 2.983.509 4.271 1.527a7.244 7.244 0 0 0-1.932 3.17h.56A6.838 6.838 0 0 1 11.5 2.749a7.094 7.094 0 0 1 1.778 2.823h.56zM6.224 9.244l.676-3.44H5.548l-.929 2.125-.058-2.126H3.247l-.657 3.44h.773l.502-2.627.136 2.628h.773l1.14-2.648-.522 2.648h.832zm9.47-.657a.764.764 0 0 1-.213.02c-.193 0-.29-.065-.29-.193 0-.04.007-.084.02-.136l.213-1.16h.425l.116-.657h-.425l.115-.657h-.831l-.406 2.126-.02.231-.038.27a1.086 1.086 0 0 0-.039.252c0 .412.226.618.677.618.129 0 .322-.032.58-.097l.116-.617zM9.2 7.756c.052-.27.077-.458.077-.56a.868.868 0 0 0-.067-.349.63.63 0 0 0-.213-.261 1.106 1.106 0 0 0-.348-.164 1.641 1.641 0 0 0-.454-.059c-.168 0-.51.058-1.024.174l-.116.619.077-.02.136-.038c.232-.052.457-.078.676-.078.361 0 .542.09.542.27a.565.565 0 0 1-.01.078.68.68 0 0 0-.01.115 1.303 1.303 0 0 0-.348-.038c-.477 0-.845.097-1.102.29a.94.94 0 0 0-.387.792c0 .233.071.416.213.552.142.135.329.203.56.203.387 0 .677-.117.87-.349v.31h.696v-.077l.02-.116.02-.136.038-.174.154-.984zm2.648.734a2.48 2.48 0 0 1-.888.154c-.477 0-.716-.16-.716-.483v-.097h1.663c.077-.27.116-.496.116-.677 0-.309-.1-.557-.3-.744-.2-.186-.48-.28-.841-.28-.426 0-.777.158-1.053.474-.277.316-.415.712-.416 1.189 0 .838.477 1.257 1.43 1.257.322 0 .612-.033.87-.097l.135-.696zm8.775-.522c.013-.103.02-.212.02-.328 0-.374-.116-.68-.349-.919-.232-.238-.56-.357-.985-.357-.49 0-.883.155-1.179.464-.296.31-.444.71-.444 1.199 0 .85.438 1.275 1.314 1.275.953 0 1.495-.444 1.624-1.334h-.001zm-6.34-1.527a14.072 14.072 0 0 0-.753-.058c-.297 0-.541.045-.735.136a.935.935 0 0 0-.415.338.882.882 0 0 0-.126.474c0 .348.22.6.657.754a.218.218 0 0 0 .059.039c.116.051.193.086.231.106.038.019.067.044.087.077.02.032.03.067.029.106 0 .167-.168.251-.503.251-.18 0-.431-.032-.754-.097l-.116.638h.039l.154.039c.013 0 .046.003.097.01.052.006.097.01.136.01.077 0 .167.003.27.01.103.006.167.01.193.01.876 0 1.314-.31 1.314-.929 0-.36-.206-.625-.618-.792a2.953 2.953 0 0 1-.329-.155.13.13 0 0 1-.058-.116c0-.167.142-.25.425-.25.09 0 .29.012.599.038l.118-.639zM16.7 9.244c.142-.85.265-1.401.367-1.653.103-.251.258-.377.465-.377h.097l.097.059.31-.793a.296.296 0 0 0-.117-.039h-.154c-.245 0-.483.142-.715.426l.077-.406h-.773l-.503 2.784h.85v-.001zm-6.378-1.74c.09-.335.277-.502.56-.502.258 0 .387.122.387.367a.31.31 0 0 1-.01.077.258.258 0 0 0-.01.058h-.928.001zm8.988-.464c.296 0 .444.193.444.58 0 .039-.003.094-.01.164a1.88 1.88 0 0 0-.01.145.935.935 0 0 1-.154.377.8.8 0 0 1-.251.241.49.49 0 0 1-.232.077c-.322 0-.483-.212-.483-.638 0-.232.064-.448.193-.647.129-.2.296-.3.503-.3v.001zM7.46 8.413c0-.297.238-.445.715-.445.013 0 .036.004.067.01a.52.52 0 0 0 .106.01.812.812 0 0 1-.077.367.56.56 0 0 1-.523.329c-.193 0-.29-.09-.29-.27l.002-.001z" fill="#444" fill-rule="evenodd"/></svg>
